X: 9722
T: Deer In The Headlights
R: reel
M: 4/4
K: Amixolydian
|:B|"A"A/A/A cA "G"BGGB|"A"ABcd eaaf|"G"gedB AG G2|"G"gedB "A"eAA:|
g|"G"ed d/d/d "A"eaaf|"G"gedg BGGg|"G"ed d/d/d "A"eaaf|"G"gedB "A"eAAg|
"G"ed d/d/d "A"eaaf|"G"gedg BGGf|"G"gedB AG G2|"G"gedB "A"eAA||

